!!!COM: Robert Schumann
!!!CNT: Deutsch
!!!TXO: Deutsch
!!!OTL: "Meine Rose"
!!!LYR: Lenau
!!!OPR: Sechs Gedichte von N. Lenau und Requiem
!!!OPS: Op. 90
!!!ONM: No. 2
!!!ENC: Leigh VanHandel
!!!YOR: Schumann Lieder - Max Friedlaender, ed.,
!!!YOR: New York: C. F. Peters, Vol. 3
!!!ODT: 1850/
**kern	**silbe
*staff1	*
*clefG2	*
*k[b-e-]	*
*M6/8	*
*MM[Langsam, mit innigem Ausdruck]	*
=1	=1
2.r	.
=2	=2
2.r	.
=3	=3
8r	.
8r	.
{8g	{Dem
[4cc	hol-
16cc]	|
16b-	-den
=4	=4
[4a	Lenz-
16a]	|
16b-	-gesch
4cc	mei-
8f}	-de,}
=5	=5
8.r	.
{8.ff	{der
16.ee-	Ro-
16.dd	-se,
16.cc	mei-
16.bn	-ner
=6	=6
4dd	Freu-
8cc}	-de,}
8r	.
8r	.
{8cc	{die
=7	=7
4cc	schon
8bn	ge-
4ee-	-beught
8dd	und
=8	=8
4dd	blas-
8cc}	-ser}
8r	.
8r	.
{8ee-	{vom
=9	=9
[4ee-	hei-
32ee-]	|
32dd	|
32ff	|
32ee-	-ssen
4dd	Strahl
8cc	der
=10	=10
4cc	Son-
8b-}	-nen,}
4r	.
8r	.
=11	=11
{8f	{reich'
8b-	ich
8dd	den
4ee-	Be-
8a	-cher
=12	=12
8cc	Was-
8b-}	-ser}
8r	.
8r	.
8r	.
{8b-	{aus
=13	=13
4ff	dunk-
8b-	-lem,
4ee-	tie-
8a	-fen
=14	=14
*k[f#c#g#d#a#e#]	*
4b#	Bron-
8a#}	-nen.}
4r	.
8r	.
=15	=15
2.r	.
=16	=16
8r	.
8r	.
{8d#	Du
16.g#	Ro-
16.g#	-se
16.g#	mei-
16.f#	-nes
=17	=17
4f#	Her-
8e#}	-zens!}
4r	.
8r	.
=18	=18
8r	.
8r	.
{8cc#	{vom
16.b	stil-
16.a#	-len
16.g#	Strahl
16.f##	des
=19	=19
4a#	Schmer-
8g#}	-zens}
4r	.
8r	.
=20	=20
{8g#	{bist
8g#	du
8f##	ge-
4b	-beugt
8a#	und
=21	=21
4a#	blas-
8g#}	-ser;}
8r	.
8r	.
{8g#	{ich
=22	=22
[4b	mo2ch-
32b]	|
32a#	|
32cc#	|
32b	-te
4a#	dir
8g#	zu
=23	=23
4g#	Fu2-
8f#}	-ssen,}
4r	.
8r	.
=24	=24
{8c#	{wie
8f#	die-
8a#	-ser
4b	Blu-
8e#	-me
=25	=25
4g#	Was-
8f#	-ser,
8ff#	still
8ee#	mei-
8dd#	-ne
=26	=26
[4.cc#	See-
4cc#]	|
8e#	-le
=27	=27
4g#	gie-
8f#}	-ssen!}
4r	.
8r	.
=28	=28
2.r	.
=29	=29
4r	.
8r	.
{8b#	{Ko2nnt'
8cc#	ich
8g##	dann
=30	=30
4.a#}	auch}
8r	.
8r	.
{8cc#	{nicht
=31	=31
4cc#	se-
8b#}	-hen}
4r	.
8r	.
=32	=32
4r	.
8r	.
{4.a#	{dich
=33	=33
[4.ee#	freu-
4ee#]	|
8b#	-dig
=34	=34
[4.cc##	auf-
4cc##]	|
8a#	-er-
=35	=35
4.cc##	-ste-
8b#}	-hen!}
8r	.
8r	.
=36	=36
2.r	.
=37	=37
*k[b-e-]	*
2.r	.
=38	=38
2.r	.
=39	=39
8r	.
8r	.
{8g	{Dem
[4cc	hol-
16cc]	|
16b-	-den
=40	=40
[4a	Lenz-
16a]	|
16b-	-gesch-
4cc	-mei-
8f}	-de,}
=41	=41
8.r	.
{8.ff	{der
16.ee-	Ro-
16.dd	-se,
16.cc	mei-
16.bn	-ner
=42	=42
4dd	Freu-
8cc}	-de,}
8r	.
8r	.
{8cc	{die
=43	=43
4cc	schon
8bn	ge-
4ee-	-beugt
8dd	und
=44	=44
4dd	blas-
8cc}	-ser}
8r	.
8r	.
{8ee-	{vom
=45	=45
[4ee-	hei-
32ee-]	|
32dd	|
32ff	|
32ee-	-ssen
4dd	Strahl
8cc	der
=46	=46
4cc	Son-
8b-}	-nen,}
4r	.
8r	.
=47	=47
{8f	{reich'
8b-	ich
8dd	den
4ee-	Be-
8a	-cher
=48	=48
8cc	Was-
8b-}	-ser}
8r	.
8r	.
8r	.
{8b-	{aus
=49	=49
4ff	dunk-
8b-	-lem,
4ee-	tie-
8a	-fen
=50	=50
4cc	Bron-
8b-}	-nen.}
4r	.
8r	.
==	==
*-	*-
